X:1
T:Oi me
T:Oi me
T:Giovanni Ghizzolo
C:Giovanni Ghizzolo
%%score 1 { 2 | 3 }
L:1/8
Q:1/4=120
M:4/4
K:F
V:1 treble nm="Soprano" snm="S"
V:2 treble nm="MusicXML Part"
V:3 bass 
V:1
"^Editor: André Vierendeels (07/05/07)\nContinuo: André Vierendeels\n\n""^Source: Madrigali et Arie---Libro primo---Venetia---A.Raverij.1609." z4 d4- | %1
w: Oi|
 d2 c/B/A/G/ A4 | z4 f4- | f2 _e/d/c/B/ c4 | z dcB cABc | d6 B2- | B2 c/B/A/G/ A4 | d3"^b" e f4- | %8
w: _ _ _ _ _ me,|oi|_ _ _ _ _ me|se tan- to'a- ma- te di sen-|tir dir|_ oi _ _ _ me|de _ _|
 f2 _ed c4 | cdGA A3 G | G4 G4 :: z4 B4 | A8 | G4- Gccc | c2 c2 ^c3 c | d6 _ee | %16
w: _ per che fa-|te chi di- ce'oi me mo-|ri- re.|S'i|mo-|ro _ un sol pot-|te- te lan- gui-|do'e do- lo-|
"^-natural" e6- e/ f/e/d/ | e6 d2 | d4 d4 | z4 d4 | B3 B c3 c | d4 d2 ^F2 | G2 A2 B2 G2 | %23
w: ro- * so'oi _ _|me sen-|ti- re|ma|se cor mio vo-|re- te che|vi- ta'hab'io _ da|
 A2 d2 G3 A | ^F4 z2 d2 | c3 d Bc d2- |"^b" d2 e/d/c/B/ c2 d/c/B/A/ | B2 c/B/A/G/ A2 B/A/G/F/ | %28
w: voi, e voi da|me- ha-|vre- te mil- le dol|_ ci'oi _ _ _ me oi _ _ _|me oi _ _ _ me oi _ _ _|
 G2 A/G/F/E/ ^F4 | z2 AA A4- | A4- A2 B/A/G/^F/ | G8 :| %32
w: me oi _ _ _ me|mil- le dol-|* * ci'oi _ _ _|me.|
V:2
 [DG=B]8 | [D^FA]8 | [DFB]8 | [FAc]8 | [DFB]4 [FAc]4 | [DFA]4 [GB]4 | [GB]4 [FAd]4 | %7
 [DFB]4 [DFA]4 | [FAc]8 | [FAc]2 [GB]2 [_EG]2 [D^F]2 | [DGB]8 :: [DGB]8 | [FA]4 [DFA]4 | %13
 [DG]4 [EG]4 | [FAc]4 [E^c]4 | [Ad]2 [GB]2 [EGc]4 | [Ace]4 [Fd]4 | [Ad]4 [E^c]4 | [^FA]8 | [DFB]8 | %20
 [GB]4 [FAc]4 | [DFB]4 [DG]2 [D^FA]2 | [EG]4 [GB]4- | [GB]4 [Gc]4 | [^FAd]4 [DFB]4 | %25
 [DFA]4 [DGB]4 | [DF]4 [EA]2 [DA]2 | [DGB]2 [Gc]2 [FAc]2 [DFB]2 | [_EGB]2 [Gc]2 [^FAd]4 | %29
 [Gc]2 [Ac]2 [EA]4 | [FA]4 [Gd]2 [^Fd]2 | [DG=B]8 :| %32
V:3
 G,6 =B,,2 | D,4 D,,4 | B,6 D,2 | F,4 F,,4 | z B,A,G, F,4 |"^b" F,D,E,F, G,4 | _E,4 D,4 | %7
 B,,4 D,3"^b" E, | F,6 F,2- | F,2 _E,2 C,2 D,2 | G,,4 G,,4 :: G,8 | ^C,4 D,4 | =B,,4 C,4 | %14
 F,4 A,4 | ^F,2 G,2 C,4 | A,,8 | A,,8 | D,4 D,,4 | B,,8 | _E,2 G,2 F,4 | B,,4 B,,2 D,2 | %22
 D,2 F,2 G,2 _E,2 | D,2 B,,2 _E,2 C,2 | D,4 B,,4 | F,2 D,2 G,4 | B,4 A,2 ^F,2 | G,2 E,2 F,2 D,2 | %28
 _E,2 C,2 D,2 C,=B,, | C,2 A,,2 D,2 ^C,2 | D,4 D,,4 | G,,8 :| %32

